!!!SOCIAL_FUNCTION: songs connected with pastimes 
!!!SOCIAL_FUNCTION2: dance
!!!PDT:	1943
!!!LING_GROUP: Muskogean
!!!LANG: Non-Tone
Specific Region: Oklahoma, California, Mississippi, Louisiana, Texas, Alabama
!!!REG: Southeast
!!!COM: Anon.
!!!OTL: Chicken Dance Song
!!!ODT: <1933//
!!!MPN: Lapintabeseihoke [Kills it Himself, Sidney Wesley]
!!!MLC: Philadelphia, Mississippi, United States of America
!! Song was recorded in January 1933.
!!!AGN: monody
!!!AMT: irregular
!!!RWG: Transcribed pitches, durations, and meters are only approximate.
!!!RWG: "Irregular in tonality"
**kern	**recip
*ICvox	*ICidio
*Imale	*Isticks
*clefF4	*
*k[]	*
*M3/4	*M3/4
*MM63	*MM63
=1-	=1-
2r	2.r
8.r	.
16G	.
=2	=2
16.G	4
32G	.
8G	.
8B	4
16A	.
16G	.
8G	4
16G	.
32r	.
32A	.
=3	=3
16.A	4
32A	.
8A	.
8A	4
16G	.
16F	.
8F	4
24F	.
24D	.
24G	.
*M2/4	*M2/4
=4	=4
16.G	4
32G	.
8G	.
8B	4
16A	.
16G	.
=5	=5
8G	4
16G	.
16D	.
8G	4
16G	.
32r	.
32A	.
*M3/4	*M3/4
=6	=6
16.A	4
32A	.
8A	.
8A	4
16G	.
16F	.
8F	4
24F	.
24D	.
24G	.
*M2/4	*M2/4
=7	=7
16.G	4
32G	.
8G	.
8B	4
16A	.
16G	.
=8	=8
8G	4
16G	.
16D	.
8G	4
16G	.
16r	.
*M3/4	*M3/4
=9	=9
16G	4
8G	.
16G	.
8.B	4
16A	.
8G	4
16G	.
16r	.
=10	=10
16B	4
8B	.
16G	.
8.A	4
16G	.
8E	4
16E	.
16D	.
=11	=11
16G	4
8G	.
16G	.
8.G	4
16G	.
16G	4
16r	.
8B	.
*M2/4	*M2/4
=12	=12
8.A	4
16G	.
8E	4
16E	.
16D	.
*M3/4	*M3/4
=13	=13
16G	4
8G	.
16G	.
8.G	4
16G	.
16G	4
16r	.
8A	.
*M2/4	*M2/4
=14	=14
8.A	4
16G	.
8E	4
16E	.
32D	.
32r	.
*M3/4	*M3/4
=15	=15
16G	4
8G	.
16G	.
8.G	4
16G	.
8G	4
16G	.
16r	.
=16	=16
16G	4
8G	.
16G	.
8.B	4
16A	.
8G	4
16G	.
16r	.
=17	=17
16B	4
8B	.
16G	.
8.A	4
16G	.
8E	4
16E	.
32D	.
32r	.
=18	=18
16G	4
8G	.
16G	.
8.G	4
16G	.
16G	4
16r	.
8B	.
*M2/4	*M2/4
=19	=19
8.A	4
16G	.
8E	4
16E	.
32D	.
32r	.
*M3/4	*M3/4
=20	=20
16G	4
8G	.
16G	.
8.G	4
16G	.
8G	4
16G	.
16r	.
==	==
*-	*-
!!!CNT: Choctaw
!!!TXO: Choctaw
!!!OCY: United States
!!!OCL: Frances Densmore
!!!YOR: Frances Densmore, "Choctaw Music"
!!!YOR: Bulletin 136, page 175, No. 61
!!!PPR: Smithsonian Institution, Bureau of American Ethnology
!!!PPR: Government Printing Office
!!!PDT: 1943
!!!PPP: Washington, DC, United States of America
!!!YEC: Electronic Copyright 2000 David Huron
!!!YER: August 2000
!!!YEN: United States of America
!!!ENC: David Huron
!!!RDT: August 30, 2000
!!!EEV: Release 1.0
!!!AIN: sticks, vox
